X:1
T:Whiskey Johnny
%%vocalfont times 10
%%notecolors 1
%%notelabels 1
M:4/4
L:1/4
K:C
V:1
"C"C E C3/2 G,/| C E C2| C E3| C E3 |
w: Whisk-ey is the life of man Whisk-ey, John-ny!
V:2
z4 | z4 | C E3| C E3 |
w: Whisk-ey, John-ny!
V:1
"G7"F3/2 E/2 D C| B, D G,2| C E G3/2 G/2| E C2 C/|
w: I'll drink whisk-ey while I can Whisk-ey for my John-ny Oh!
V:2
z4 | z4 | C E G3/2 G/2| E C2 C/|
w: Whisk-ey for my John-ny Oh!
W: Oh whiskey straight and whiskey strong,
W: Give me some whiskey and I'll sing you a song
W: 
W: O whiskey makes me wear old clo'es,
W: Whiskey gave me a broken nose.
W: 
W: Whiskey killed my poor old dad,
W: Whiskey drove my mother mad.
W: 
W: If whiskey comes too near my nose,
W: I tip it up and down she goes.
W: 
W: I had a girl, her name was Lize,
W: She puts whiskey in her pies.
W: 
W: My wife and I can not agree;
W: She puts whiskey in her tea.
W: 
W: Here comes the cook with the whiskey can,
W: A glass of grog for every man.
W: 
W: A glass of grog for every man,
W: And a bottle full for the shantyman.